X:1
T:Scribantur Haec
T:Orlando di Lasso (1532-1594)
T:Arr. Paul Thomas May
T:Scribantur Haec
T:©
T:©
C:Orlando di Lasso (1532-1594)
Z:©
%%score [ 1 2 ]
L:1/8
Q:1/4=90
M:2/2
K:C
V:1 treble nm="Soprano" snm="S"
V:2 bass nm="Baritone" snm="B"
V:1
 G4 E4 | F4 (G4 | G4) z2 A2 | E2 G2 F2 F2 | E2 C2 D3 D | C8 | z2 D2 A2 F2 | A2 B2 c4 | %8
w: Scri- ban-|tur haec|_ in|ge- ne- ra- ti-|o- ne al- te-|ra,|in ge- ne-|ra- ti- o-|
w: S M|F S|S L|M S F F|M D R R|D|R L F|L T D|
 (BAGF E2) (D2 | D2) A2 A4 | z2 c2 c3 c | A2 A4 F2 | (DEFG A2) A2 | D2 A2 c2 B2 | (AGFE D2) ^C2 | %15
w: ne _ _ _ _ al-|* te- ra,|et po- pu-|lus qui cre-|a- * * * * bi-|tur, lau- da- bit|Do- * * * * mi-|
w: D L S F M R|R L L|D D D|L L F|R M F S L L|R L D T|L S F M R Di|
 D4 z2 A2 | c2 B2 (cBAG | F2) F2 E4 | z2 F2 A2 G2 | (AGFE D2) F2 | E4 z2 C2 | E2 D2 EFGA | %22
w: num, lau-|da- bit Do- * * *|* mi- num,|lau- da- bit|Do- * * * * mi-|num, lau-|da- bit Do- * * *|
w: D L|D T D T L S|F F M|F L S|L S F M R F|M D|M R M F S L|
 Bc (d2 d)cBA | cBBA/G/ A2 A2 | !fermata!G8 |] %25
w: |* * * * * * mi-|num.|
w: T D R _ D T L|D T T L S L L|S|
V:2
 z8 | z4 C,4 | E,4 D,4 | C,4 z2 D,2 | G,2 E,2 (F,G,A,B, | C2) A,2 G,2 E,2 | F,3 F, (D,4 | %7
w: |Scri-|ban- tur|haec in|ge- ne- ra- * * *|* ti- o- ne|al- te- ra,|
w: |D|M R|D R|S M F S L T|D L S M|F F R|
 D,4) z2 C,2 | G,2 E,2 G,2 A,2 | B,2 C2 F,2 D,2 | A,4 z2 F,2 | F,3 F, D,2 A,2 | F,2 (D,3 E,F,G, | %13
w: _ in-|ge- ne- ra- ti-|o- ne al- te-|ra, et|po- pu- lus qui|cre- a- * * *|
w: _ D|S M S L|T D F R|L F|F F R L|F R M F S|
 A,2) F,2 E,4 | z2 D,2 F,2 E,2 | (F,G,)A,B, C3 B, | A,2 ^G,2 A,4 | z2 A,2 C2 B,2 | %18
w: * bi- tur,|lau- da- bit|Do- * * * * *|* mi- num,|lau- da- bit|
w: L F M|R F M|F S L T D T|L Si L|L S T|
 (CB,A,G, F,2) E,2 | D,4 z2 A,2 | C2 B,2 C3 C | B,4 z2 E,2 | G,2 ^F,2 (G,3 =F, | E,D, G,4) ^F,2 | %24
w: Do- * * * * mi-|num, lau-|da- bit Do- mi-|num, lau-|da- bit Do- *|* * * mi-|
w: D T L S F M|R L|D T D D|T M|S Fi S F|M R S Fi|
 !fermata!G,8 |] %25
w: num.|
w: S|

